!!!!SEGMENT: pl-kk--kk-i-382--010-002_anonim--nro-3-sanctus.krn
!!!cenid: 18xx:1470
!!!COM: Anonim
!!!COM-rismid: pe30004985
!!!CDT:
!!!CNT:
!!!OPR: Nro 3
!!!OTL: Sanctus
!!!OMV: 005
!!!PDT:
!!!AGN: Sacred
!!!SMS-siglum: PL-Kk
!!!SMS-shelfmark: Kk.I.382
!!!SMS-shelfwork: 003-005 M
!!!SMS-variant:
!!!SMS-altvar:
!!!NIFC-rismid: 1001139093
!!!URL-scan: http://repozytorium.nifc.pl/skany/pl-kk-nut--i-382
!!!ONB-nifc: UWAGA: obsada: S/T 1, T 2, A/B 1, B 2. Sanctus, Osanna + Benedictus. Skan 0010, 0081-0082, 0154, 0227
!!!key:
**kern	**text	**kern	**text	**kern	**text	**kern	**text
*part4	*part4	*part3	*part3	*part2	*part2	*part1	*part1
*staff4	*staff4	*staff3	*staff3	*staff2	*staff2	*staff1	*staff1
*Ibass	*	*Itenor	*	*Ialto	*	*Itenor	*
*I"Basso II	*	*I"Tenore II	*	*I"Alto vel Basso I	*	*I"Soprano vel Tenore I.	*
*I'B 2	*	*I'T 2	*	*I'A (B 1)	*	*I'S (T 1)	*
*clefF4	*	*clefC4	*	*clefC3	*	*clefC1	*
*k[]	*	*k[]	*	*k[]	*	*k[]	*
*C:	*	*C:	*	*C:	*	*C:	*
*M4/4	*	*M4/4	*	*M4/4	*	*M4/4	*
*met(C.)	*	*met(C.)	*	*met(C.)	*	*met(C.)	*
=1	=1	=1	=1	=1	=1	=1	=1
*2\right	*	*2\right	*	*2\right	*	*2\right	*
!LO:TX:i:a:t=in C.\nSanctus	!	!LO:TX:t=P:problem:all\right:global	!	!LO:TX:t=P:problem:all\right:global	!	!LO:TX:t=P:problem:all\right:global	!
!	!	!LO:TX:i:a:t=Sanctus\n in C.	!	!LO:TX:i:a:t=Sanctus	!	!LO:TX:i:a:t=Sanctus	!
!LO:TX:a:t=P:problem:napis "in C. Sanctus" przed kluczem	!	!LO:TX:a:t=P:problem:napis "Sanctus in C." przed kluczem	!	!LO:TX:a:t=P:problem:napis "Sanctus" przed kluczem	!	!LO:TX:a:t=P:problem:napis "Sanctus" przed kluczem	!
4C/	San-	4c\	San-	4e\	San-	[>1g	San-
4GG/	.	4B\	.	4d\	.	.	.
4C/	.	8c\L	.	8e\L	.	.	.
.	.	8e\	.	8g\	.	.	.
8BB/L	.	8d\	.	8f\	.	.	.
8C/J	.	8c\J	.	8e\J	.	.	.
=2	=2	=2	=2	=2	=2	=2	=2
4G\	.	(>4c\	-ctus	(>4e\	-ctus	4g\]	.
2GG/	-ctus	4B\)	.	4d\)	.	4g\	-ctus
.	.	4r	.	4r	.	2r	.
4r	.	(>8B\L	san-	(>8d\L	San-	.	.
.	.	8c\J)	.	8e\J)	.	.	.
=3	=3	=3	=3	=3	=3	=3	=3
(>1G	San-	4d\	.	4.f\	.	(>4.b\	san-
.	.	4c\	.	.	.	.	.
.	.	.	.	8e\	.	8cc\)	.
.	.	8d\L	.	8f\L	.	2b\	-ctus
.	.	8f\	.	8a\	.	.	.
.	.	8e\	.	8g\	.	.	.
.	.	8d\J	.	8f\J	.	.	.
=4	=4	=4	=4	=4	=4	=4	=4
4c\)	.	(>4d\	-ctus	(>4f\	ctus	4g\	san-
2C/	-ctus	4c\)	.	4e\)	.	4g\	-ctus
.	.	4r	.	4r	.	2r	.
4r	.	(>8c\L	San-	(>8e\L	San-	.	.
.	.	8d\J	.	8f\J)	.	.	.
=5	=5	=5	=5	=5	=5	=5	=5
(<2C/	San-	2e\	.	(>2g\	.	(>2cc\	San-
4BB/	.	4d\	.	4f\	.	4b\	.
4C/)	.	4c\)	.	4e\)	.	4g\)	.
!	!	!LO:LB:g=original	!	!	!	!	!
=6	=6	=6	=6	=6	=6	=6	=6
1GG	-ctus	(>4c\	ctus	(>4e\	ctus	2.g\	-ctus
.	.	4B\)	.	4d\)	.	.	.
!	!	!	!	!LO:TX:a:i:t=V[olti]&colon; S[ubito]&colon;	!	!	!
!	!	!	!	!LO:TX:a:t=P:problem:napis za kreską taktową	!	!	!
.	.	2r	.	2r	.	.	.
.	.	.	.	.	.	4r	.
!	!	!	!	!LO:PB:g=original	!	!	!
=7	=7	=7	=7	=7	=7	=7	=7
(>4c\	Do-	2e\	Do-	4.g\	Do-	2cc\	Do-
4G\)	.	.	.	.	.	.	.
.	.	.	.	8g\	-mi-	.	.
4E\	-mi-	4e\	-mi-	2g\	-nus	4cc\	-mi-
4C\	-nus	4e\	-nus	.	.	4cc\	-nus
!LO:LB:g=original	!	!	!	!	!	!LO:LB:g=original	!
=8	=8	=8	=8	=8	=8	=8	=8
2.C/	De-	2.f\	De-	2.a\	De-	2.cc\	De-
4C/	-us	4e\	-us	4g\	-us	4cc\	-us
=9	=9	=9	=9	=9	=9	=9	=9
2.G\	De-	2.d\	De-	2.f\	De-	2.b\	De-
4c\	-us	4c\	-us	4e\	-us	4g\	-us
=10	=10	=10	=10	=10	=10	=10	=10
4G\	Sa-	8B\L	Sa-	8d\L	Sa-	(>4g\	sa-
.	.	8c\	.	8e\	.	.	.
4D\	.	8d\	.	8f\	.	2b\)	.
.	.	8c\J	.	8e\J	.	.	.
4BB/	-ba-	8d\L	.	8f\L	-ba-	.	.
.	.	8c\J	.	8e\	.	.	.
4D/	.	(>8d\L	-ba-	8f\	.	4g\	-ba-
.	.	8c\J)	.	8e\J	.	.	.
=11	=11	=11	=11	=11	=11	=11	=11
!LO:SIC:l:v:s=-oth	!	!LO:SIC:l:v:s=-oth	!	!LO:SIC:l:v:s=-oth	!	!	!
1GG	-ot	1B	-ot	2.d\	-ot	1g	-oth.
.	.	.	.	4r	.	.	.
==12	==12	==12	==12	==12	==12	==12	==12
*M3/4	*	*M3/4	*	*M3/4	*	*M3/4	*
4G\	Ple-	4B\	Ple-	4d\	ple-	4g\	Ple-
4G\	-ni	4c\	-ni	4e\	-ni	4g\	-ni
4B\	sunt	4d\	sunt	4f\	sunt	4g\	sunt
!	!	!LO:LB:g=original	!	!LO:LB:g=original	!	!	!
=13	=13	=13	=13	=13	=13	=13	=13
!LO:SIC:l:v:s=cae-	!	!LO:SIC:l:v:s=cae-	!	!LO:SIC:l:v:s=cae-	!	!LO:SIC:l:v:s=cae-	!
(>8c\L	ce-	(>8c\L	ce-	(>8e\L	ce-	4g\	ce-
16G\L	.	8d\J)	.	8f\J)	.	.	.
16E\JJ)	.	.	.	.	.	.	.
4C/	-li	4e\	-li	4g\	-li	4cc\	-li
4r	.	4r	.	4r	.	4r	.
=14	=14	=14	=14	=14	=14	=14	=14
!LO:SIC:l:v:s=cae-	!	!LO:SIC:l:v:s=cae-	!	!LO:SIC:l:v:s=cae-	!	!LO:SIC:l:v:s=cae-	!
4C/	ce-	(>8f\L	ce-	(>8a\L	ce-	4cc\	ce-
.	.	8e\J)	.	8g\J)	.	.	.
4C/	-li	(>8f\L	-li	(>8a\L	-li	4cc\	-li
.	.	8e\J)	.	8g\J)	.	.	.
(>8F\L	et	(>8d\L	et	(>8f\L	et	4a\	et
8F#X\J)	.	8c\J)	.	8e\J)	.	.	.
!LO:LB:g=original	!	!	!	!	!	!LO:LB:g=original	!
=15	=15	=15	=15	=15	=15	=15	=15
4G\	ter-	4c\	ter-	4e\	ter-	4g\	ter-
4G\	-ra	4B\	-ra	4d\	-ra	4g\	-ra
4r	.	4r	.	4r	.	4r	.
=16	=16	=16	=16	=16	=16	=16	=16
4.GG/	glo-	4.d\	glo-	4.f\	glo-	4.b\	glo-
8G\	-ri-	8c\	-ri-	8e\	-ri-	8g\	-ri-
4G\	-a	4B\	-a	4d\	-a	4g\	-a
=17	=17	=17	=17	=17	=17	=17	=17
4.C/	glo-	4.e\	glo-	4.g\	glo-	4.cc\	glo-
8D/	-ri-	8d\	-ri-	8f\	-ri-	8b\	-ri-
4E\	-a	4c\	-a	4e\	-a	4g\	-a
=18	=18	=18	=18	=18	=18	=18	=18
(>4F\	tu-	(>8f\L	tu-	(>8a\L	tu-	(>4a\	tu-
.	.	16e\L	.	16g\L	.	.	.
.	.	16d\JJ	.	16f\JJ	.	.	.
4G\	.	4c\	.	4e\	.	2g\)	.
4GG/)	.	4B\)	.	4d\)	.	.	.
=19	=19	=19	=19	=19	=19	=19	=19
!LO:N:vis=1.	!	!	!	!	!	!	!
2.C/	-a	2c\	-a.	2e\	-a	4g\	-a
.	.	.	.	.	.	4r	.
.	.	4r	.	4r	.	4r	.
!	!	!LO:LB:g=original	!	!LO:LB:g=original	!	!	!
=20	=20	=20	=20	=20	=20	=20	=20
4.G\	glo-	4.B\	glo-	4.d\	glo-	4.g\	glo-
8G\	-ri-	8c\	-ri-	8e\	-ri-	8g\	-ri-
4G\	-a	4d\	-a	4f\	-a	4b\	-a
=21	=21	=21	=21	=21	=21	=21	=21
4.c\	glo-	4.c\	glo-	4.e\	glo-	4.g\	glo-
8G\	-ri-	8d\	-ri-	8f\	-ri-	8b\	-ri-
4E\	-a	4e\	-a	4g\	-a	4cc\	-a
!	!	!	!	!	!	!LO:LB:g=original	!
=22	=22	=22	=22	=22	=22	=22	=22
4F\	tu-	8f\L	tu-	(>8a\L	tu-	(>4a\	tu-
.	.	16e\L	.	16g\L	.	.	.
.	.	16d\JJ	.	16f\JJ	.	.	.
4G\	.	4c\	.	4e\	.	2g\)	.
4GG/	.	4B\	.	4d\)	.	.	.
=23	=23	=23	=23	=23	=23	=23	=23
2.C/	a.	2.c\	-a.	2e\	-a.	2.g\	-a.
.	.	.	.	4r	.	.	.
!LO:LB:g=original	!	!	!	!	!	!LO:LB:g=original	!
==24	==24	==24	==24	==24	==24	==24	==24
*M4/4	*	*M4/4	*	*M4/4	*	*M4/4	*
*met(C.)	*	*met(C.)	*	*met(C.)	*	*met(C.)	*
!	!	!	!	!	!	!LO:TX:i:a:t=Osanna	!
!	!	!	!	!	!	!LO:TX:a:t=P:problem:napis "Osanna" przed kluczem	!
4c\	O-	4e\	O-	4g\	O-	4cc\	O-
=25	=25	=25	=25	=25	=25	=25	=25
8c\L	-san-	8e\L	-san-	(>8g\L	-san-	4cc\	-san-
8G\	.	8d\	.	8f\	.	.	.
8E\	.	8c\	.	8e\	.	2g\	-na
8G\J	.	8d\J	.	8f\J)	.	.	.
4C/	-na	4c\	-na	4e\	-na	.	.
4C/	o-	4e\	o-	4g\	O-	4cc\	O-
=26	=26	=26	=26	=26	=26	=26	=26
4G\	-san-	8d\L	-san-	(>8f\L	-san-	2g\	-san-
.	.	8c\	.	8e\	.	.	.
(<8D/L	.	8B\	.	8d\	.	.	.
8BB/J)	.	8c\J	.	8e\J)	.	.	.
4GG/	-na	4B\	-na	4d\	-na	4g\	-na
4r	.	4r	.	4r	.	4r	.
!	!	!LO:LB:g=original	!	!LO:LB:g=original	!	!	!
=27	=27	=27	=27	=27	=27	=27	=27
8F\L	o-	2f\	O-	2a\	O-	2cc\	O-
8G\	.	.	.	.	.	.	.
8A\	.	.	.	.	.	.	.
8B\J	.	.	.	.	.	.	.
8c\L	san-	4e\	-san-	4g\	-san-	4cc\	-san-
8G\J	.	.	.	.	.	.	.
8E\L	-na	4e\	-na	4g\	-na	4cc\	-na
8C\J	.	.	.	.	.	.	.
=28	=28	=28	=28	=28	=28	=28	=28
8BB/L	in	2d\	in	2f\	in	2b\	in
8GG/	.	.	.	.	.	.	.
8AA/	.	.	.	.	.	.	.
8BB/J	.	.	.	.	.	.	.
2C/	ex-	2c\	ex-	2e\	ex-	2g\	ex-
=29	=29	=29	=29	=29	=29	=29	=29
1G	-cel-	8B\L	-cel-	(>8d\L	-cel-	2g\	-cel-
.	.	8c\	.	8e\	.	.	.
.	.	8d\	.	8f\	.	.	.
.	.	8c\J	.	8e\J	.	.	.
.	.	8d\L	.	8f\L	.	2b\	-sis
.	.	8B\	.	8d\	.	.	.
.	.	8c\	.	8e\	.	.	.
.	.	8d\J	.	8f\J	.	.	.
=30	=30	=30	=30	=30	=30	=30	=30
1C	-sis	8c\L	.	8e\L	.	2g\	in
.	.	8d\	.	8f\	.	.	.
.	.	8e\	.	8g\	.	.	.
.	.	8d\J	.	8f\J)	.	.	.
.	.	8e\L	sis	(>8g\L	-sis	2cc\	ex-
.	.	8c\	.	8e\	.	.	.
.	.	8d\	.	8f\	.	.	.
.	.	8e\J	.	8g\J)	.	.	.
!LO:LB:g=original	!	!	!	!	!	!LO:LB:g=original	!
=31	=31	=31	=31	=31	=31	=31	=31
2C/	O-	(>4f\	in	(>4a\	in	2cc\	-cel-
.	.	4e\)	.	4g\)	.	.	.
4G\	-san-	(>4d\	ex-	(>4f\	ex-	(>4b\	.
4c\	-na	4c\)	.	4e\)	.	4g\)	.
=32	=32	=32	=32	=32	=32	=32	=32
2G\	in	2B\	-cel-	2d\	-cel-	[>1g	.
2G\	ex-	[>2c\	.	[>2e\	.	.	.
=33	=33	=33	=33	=33	=33	=33	=33
1G	-cel-	2c\]	.	2e\]	.	1g]	.
.	.	2B\	.	2d\	.	.	.
=34	=34	=34	=34	=34	=34	=34	=34
1C	-sis	1c	-sis.	1e	sis.	1g	sis.
!LO:LB:g=original	!	!LO:LB:g=original	!	!LO:LB:g=original	!	!LO:LB:g=original	!
==35	==35	==35	==35	==35	==35	==35	==35
*k[b-]	*	*k[b-]	*	*k[b-]	*	*k[b-]	*
*M3/4	*	*M3/4	*	*M3/4	*	*M3/4	*
!LO:TX:i:a:t=Benedictus	!	!LO:TX:i:a:t=Benedictus.	!	!LO:TX:i:a:t=Benedictus	!	!LO:TX:i:a:t=Benedictus	!
!LO:TX:a:t=P:problem:napis "Benedictus" przed kluczem na pięciolinii	!	!LO:TX:a:t=P:problem:napis "Benedictus." przed kluczem	!	!LO:TX:a:t=P:problem:napis "Benedictus" przed kluczem	!	!LO:TX:a:t=P:problem:napis "Benedictus" przed kluczem	!
(>4F\	Be-	8F/L	Be-	2a\	Be-	2cc\	Be-
.	.	16A/L	.	.	.	.	.
.	.	16c/JJ	.	.	.	.	.
4A\)	.	4f\	.	.	.	.	.
4c\	-ne-	4e\	-ne-	4g\	-ne-	4b-X\	-ne-
=36	=36	=36	=36	=36	=36	=36	=36
4F\	-di-	4.f\	-dic-	(>4.a\	-dic-	4cc\	-dic-
4F\	-ctus	.	.	.	.	4cc\	-tus
.	.	16e\LL	.	16g\LL	.	.	.
.	.	16d\JJ	.	16b-\JJ)	.	.	.
4F\	qui	8c\	-tus	8a\	-tus	(>8cc\L	qui
.	.	8d\	qui	8b-\	qui	8b-\J)	.
=37	=37	=37	=37	=37	=37	=37	=37
4F\	ve-	8c\L	ve-	8a\L	ve-	(>4a\	ve-
.	.	16d\L	.	16b-\L	.	.	.
.	.	16c\JJ	.	16a\JJ	.	.	.
4BB-/	.	8B-\L	.	8g\L	.	4dd\	.
.	.	16c\L	.	16a\L	.	.	.
.	.	16B-\JJ	.	16g\JJ	.	.	.
4C/	.	8G/L	.	8e\L	.	4cc\)	.
.	.	16A/L	.	16f\L	.	.	.
.	.	16G/JJ	.	16e\JJ	.	.	.
=38	=38	=38	=38	=38	=38	=38	=38
4F\	-nit	4A\	-nit	4f\	-nit	2cc\	-nit
4r	.	4r	.	4r	.	.	.
(>8F\L	qui	8c\L	qui	(>8a\L	qui	4r	.
8A\J)	.	16B-\L	.	16g\L	.	.	.
.	.	16A\JJ	.	16f\JJ)	.	.	.
!	!	!LO:LB:g=original	!	!	!	!	!
=39	=39	=39	=39	=39	=39	=39	=39
!	!	!	!	!	!	!LO:TX:a:t=1.	!
4c\	ve-	4A\	ve-	4f\	ve-	2.r	.
4C/	-nit	4G/	-nit	4e\	-nit	.	.
(<8C/L	qui	8d\L	qui	(>8b-\L	qui	.	.
8E/J)	.	16c\L	.	16a\L	.	.	.
.	.	16B-\JJ	.	16g\JJ)	.	.	.
!LO:LB:g=original	!	!	!	!LO:LB:g=original	!	!	!
=40	=40	=40	=40	=40	=40	=40	=40
4E\	ve-	4B-\	ve-	4g\	ve-	4r	.
4F\	-nit	4A\	-nit	4f\	-nit	4r	.
4F\	in	8r	.	4a\	in	4cc\	in
.	.	8c\	in	.	.	.	.
!	!	!	!	!	!	!LO:LB:g=original	!
=41	=41	=41	=41	=41	=41	=41	=41
2F\	no-	(>8c\L	no-	(>8a\L	no-	2cc\	no-
.	.	8B-\J)	.	8g\J)	.	.	.
.	.	(>8d\L	-mi-	(>8b-\L	-mi-	.	.
.	.	8c\J)	.	8a\J)	.	.	.
8E\	-mi-	(>8B-\L	-ne	(>8g\L	-ne	8cc\	-mi-
8F\	-ne	8A\J)	.	8f\J)	.	8cc\	-ne
=42	=42	=42	=42	=42	=42	=42	=42
8C/	Do-	8c\	Do-	8a\	Do-	8cc\	Do-
8C/	-mi-	16B-\LL	-mi-	(>16g\LL	-mi-	8cc\	-mi-
.	.	16A\JJ	.	16f\JJ)	.	.	.
4C/	-ni	4G/	-ni	4e\	-ni	4cc\	-ni
!	!	!LO:TX:a:i:t=V[olti]&colon; S[ubito]&colon;	!	!	!	!	!
!	!	!LO:TX:a:t=P:problem:napis za kreską taktową na pięciolinii	!	!	!	!	!
4r	.	4r	.	4r	.	4r	.
!	!	!LO:PB:g=original	!	!	!	!	!
=43	=43	=43	=43	=43	=43	=43	=43
2C/	Be-	(>4B-\	Be-	(>4g\	Be-	2cc\	Be-
.	.	4A\)	.	4f\)	.	.	.
4C/	-ne-	4G\	-ne-	4e\	-ne-	4cc\	-ne-
=44	=44	=44	=44	=44	=44	=44	=44
4F\	-dic-	(>16A\LL	-dic-	(>16f\LL	-dic-	4cc\	-dic-
.	.	16B-\	.	16g\	.	.	.
.	.	16A\	.	16f\	.	.	.
.	.	16B-\JJ)	.	16g\JJ)	.	.	.
4F\	-tus	4c\	-tus	4a\	-tus	4a\	-tus
8r	.	8r	.	8r	.	8r	.
8F\	qui	8c\	qui	8a\	qui	8a\	qui
=45	=45	=45	=45	=45	=45	=45	=45
(>2.C/	ve-	4B-\	ve-	(>4g\	ve-	[>2.cc\	ve-
.	.	4A\	.	4f\	.	.	.
.	.	4G\	.	4e\)	.	.	.
!	!	!	!	!LO:LB:g=original	!	!	!
=46	=46	=46	=46	=46	=46	=46	=46
4F\)	.	(>16A\LL	.	(>16f\LL	.	4cc\]	.
.	.	16B-\	.	16g\	.	.	.
.	.	16A\	.	16f\	.	.	.
.	.	16B-\JJ)	.	16g\JJ)	.	.	.
4F\	-nit	4c\	-nit	4a\	-nit	4a\	-nit
8r	.	8r	.	8r	.	8r	.
8F\	in	8c\	in	8a\	in	8f/	in
!LO:LB:g=original	!	!	!	!	!	!LO:LB:g=original	!
=47	=47	=47	=47	=47	=47	=47	=47
8F\L	no-	8c\L	no-	(>8a\L	no-	4.cc\	no-
8E\J	.	8B-\J	.	8g\J)	.	.	.
8E\L	-mi-	8B-\L	-mi-	(>8g\L	-mi-	.	.
8F\J	.	8A\J	.	8f\J)	.	8cc\	-mi-
4F\	-ne	4A\	-ne	4f\	-ne	4cc\	-ne
=48	=48	=48	=48	=48	=48	=48	=48
(<4BB-/	Do-	(>16B-\LL	Do-	(>16g\LL	Do-	(>4dd\	Do-
.	.	16c\	.	16a\	.	.	.
.	.	16d\	.	16b-\	.	.	.
.	.	16B-\JJ	.	16g\JJ	.	.	.
4C/)	.	4A\)	.	4f\)	.	4cc\)	.
4C/	-mi-	4G\	-mi-	4e\	-mi-	4cc\	-mi-
!	!	!LO:LB:g=original	!	!	!	!	!
=49	=49	=49	=49	=49	=49	=49	=49
4F\	-ni	4A\	-ni	4f\	-ni	4cc\	-ni
4r	.	4r	.	4r	.	4r	.
8r	.	8r	.	4a\	in	8r	.
8F\	in	8c\	in	.	.	8a\	in
=50	=50	=50	=50	=50	=50	=50	=50
8F\L	no-	8c\L	no-	(>8a\L	no-	4.cc\	no-
8E\J	.	8B-\J	.	8g\J)	.	.	.
8E\L	-mi-	8B-\L	-mi-	(>8g\L	-mi-	.	.
8F\J	.	8A\J	.	8f\J)	.	8cc\	-mi-
!	!	!	!	!LO:SIC:v:s=4f	!	!	!
4F\	-ne	4A\	-ne	4e\	-ne	4cc\	-ne
!	!	!	!	!LO:LB:g=original	!	!	!
=51	=51	=51	=51	=51	=51	=51	=51
4BB-/	Do-	16B-\LL	Do-	(>16g\LL	Do-	(>4dd\	Do-
.	.	16d\	.	16b-\	.	.	.
.	.	16c\	.	16a\	.	.	.
.	.	16B-\JJ	.	16g\JJ	.	.	.
4C/	.	4A\	.	4f\)	.	4cc\)	.
4C/	-mi-	4G/	-mi-	4e\	-mi-	4cc\	-mi-
=52	=52	=52	=52	=52	=52	=52	=52
2F\	-ni.	2A\	-ni.	2f\	-ni.	2cc\	-ni.
!	!	!	!	!	!	!LO:TX:i:a:t=Osanna D[a]&colon; C[apo]&colon;	!
!	!	!	!	!	!	!LO:TX:a:t=P:problem:napis na pięciolinii za kreską	!
4r	.	4r	.	4r	.	4r	.
!LO:LB:g=original	!	!	!	!	!	!	!
==53	==53	==53	==53	==53	==53	==53	==53
*k[]	*	*k[]	*	*k[]	*	*k[]	*
*M4/4	*	*M4/4	*	*M4/4	*	*M4/4	*
*met(C.)	*	*met(C.)	*	*met(C.)	*	*met(C.)	*
4c\	O-	4e\	O-	4g\	O-	4cc\yy	O-
=54	=54	=54	=54	=54	=54	=54	=54
8c\L	-san-	8e\L	-san-	(>8g\L	-san-	4cc\yy	-san-
8G\	.	8d\	.	8f\	.	.	.
8E\	.	8c\	.	8e\	.	2g\yy	-na
8G\J	.	8d\J	.	8f\J)	.	.	.
4C/	-na	4c\	-na	4e\	-na	.	.
4C/	o-	4e\	o-	4g\	O-	4cc\yy	O-
=55	=55	=55	=55	=55	=55	=55	=55
4G\	-san-	8d\L	-san-	(>8f\L	-san-	2g\yy	-san-
.	.	8c\	.	8e\	.	.	.
8D/L	.	8B\	.	8d\	.	.	.
8BB/J	.	8c\J	.	8e\J)	.	.	.
4GG/	-na	4B\	-na	4d\	-na	4g\yy	-na
4r	.	4r	.	4r	.	4ryy	.
!	!	!LO:LB:g=original	!	!LO:LB:g=original	!	!	!
=56	=56	=56	=56	=56	=56	=56	=56
8F\L	O-	2f\	O-	2a\	O-	2cc\yy	O-
8G\	.	.	.	.	.	.	.
8A\	.	.	.	.	.	.	.
8B\J	.	.	.	.	.	.	.
8c\L	-san-	4e\	-san-	4g\	-san-	4cc\yy	-san-
8G\J	.	.	.	.	.	.	.
8E\L	-na	4e\	-na	4g\	-na	4cc\yy	-na
8C\J	.	.	.	.	.	.	.
=57	=57	=57	=57	=57	=57	=57	=57
8BB/L	in	2d\	in	2f\	in	2b\yy	in
8GG/	.	.	.	.	.	.	.
8AA/	.	.	.	.	.	.	.
8BB/J	.	.	.	.	.	.	.
2C/	ex-	2c\	ex-	2e\	ex-	2g\yy	ex-
=58	=58	=58	=58	=58	=58	=58	=58
1G	-cel-	8B\L	-cel-	8d\L	-cel-	2g\yy	-cel-
.	.	8c\	.	8e\	.	.	.
.	.	8d\	.	8f\	.	.	.
.	.	8c\J	.	8e\J	.	.	.
.	.	8d\L	.	8f\L	.	2b\yy	-sis
.	.	8B\	.	8d\	.	.	.
.	.	8c\	.	8e\	.	.	.
.	.	8d\J	.	8f\J	.	.	.
=59	=59	=59	=59	=59	=59	=59	=59
1C	-sis	8c\L	.	8e\L	.	2g\yy	in
.	.	8d\	.	8f\	.	.	.
.	.	8e\	.	8g\	.	.	.
.	.	8d\J	.	8f\J	.	.	.
.	.	8e\L	sis	(>8g\L	-sis	2cc\yy	ex-
.	.	8c\	.	8e\	.	.	.
.	.	8d\	.	8f\	.	.	.
.	.	8e\J	.	8g\J)	.	.	.
!LO:LB:g=original	!	!	!	!	!	!	!
=60	=60	=60	=60	=60	=60	=60	=60
2C/	O-	(>4f\	in	(>4a\	in	2cc\yy	-cel-
.	.	4e\)	.	4g\)	.	.	.
4G\	-san-	(>4d\	ex-	(>4f\	ex-	(>4b\yy	.
4c\	-na	4c\)	.	4e\)	.	4g\)yy	.
!	!	!	!	!LO:LB:g=original	!	!	!
=61	=61	=61	=61	=61	=61	=61	=61
2G\	in	2B\	-cel-	(>2d\	-cel-	[>1gyy	.
2G\	ex-	(>2c\	.	2e\	.	.	.
=62	=62	=62	=62	=62	=62	=62	=62
1G	-cel-	2c\	.	2e\	.	1g]yy	.
.	.	2B\)	.	2d\)	.	.	.
=63	=63	=63	=63	=63	=63	=63	=63
1C	-sis.	1c	-sis	1e	-sis.	1gyy	sis.
==	==	==	==	==	==	==	==
*-	*-	*-	*-	*-	*-	*-	*-
!!!system-decoration: [(s1,s2,s3,s4)]
!!!RDF**kern: > = above
!!!RDF**kern: < = below
!!!EED: Mateusz Mrugas
!!!EST: 2021-02-02
!!!AIN: 1 alto 1 bass 2 tenor
!!!ENC: Krzysztof Stępień
!!!END: 2021-01-27
